X:175
T: Muede kehrt ein Wandersmann zurueck
N: D1006
O: Europa, Mitteleuropa, Deutschland, Wuettemberg, Nagold, Egenhausen
N: Tonlaengen im vorletzten Takt korrigiert; DVA-Signatur A 36 810
R: Liebes - Lied
M: 4/4
L: 1/8
K: G
DD | B3AGFGA | D4z2
FG | A3GFAcB | G4z2
GA | Bdd2cBAG | E4z
GGE | D3GFAcB | G4z2
GA | Bdd2cBAG | E4z
GGE | D3GFAed | B4z2

@@@ Tune index: 2697
